!!!COM: Robert Schumann
!!!CNT: Deutsch
!!!TXO: Deutsch
!!!OTL: Die beiden Grenadiere
!!!LYR: Heine
!!!OPR: Ausgewa2hlte Lieder
!!!OPS: Op. 49
!!!ONM: No. 1
!!!ENC: Ben Fuhrman
!!!YOR: Schumann Lieder - Max Friedlaender, ed.,
!!!YOR: New York: C. F. Peters, Vol. 1
!!!ODT: 1840/
!!NB: Vocal melody and text only encoded.
!!NB: First instance of melodic material only encoded.
**kern	**silbe
*clefG2	*
*k[]	*
*M4/4	*
!!created: 5/24/06 10:03
!!proofed and posted: 5/24/06 10:04
!!edit time: 74 minutes
=2	=2
2r	.
4r	.
{4e	{Nach
=3	=3
4a	Frank-
(8a	-reich
8b)	|
12cc	zo-
12cc	-gen
12cc	zwei
8.b	Gre-
16b	-na-
=4	=4
4a}	-dier}
4r	.
4r	.
{4cc	{die
=5	=5
4b	wa-
8a	-ren
8a	in
4g#	Russ-
8.f#	-land
16f#	ge-
=6	=6
4e	-fan-
4e}	-gen.
4r	.
{4e	{Und
=7	=7
4.a	als
8b	sie
12cc	ka-
12cc	-men
12cc	ins
12b	deu-
12b	-tsche
12b	Quar-
=8	=8
4a}	-tier,}
4r	.
4r	.
{4cc	{sie
=9	=9
4b	lie-
8a	-ssen
8a	die
4.g#	Ko2p-
8f#	-fe
=10	=10
4e	han-
4e}	-gen.}
4r	.
{4e	{Da
=11	=11
4f	ho2r-
8f	-ten
8f	sie
4f	bei-
8f	-de
8f	die
=12	=12
4e	trau-
8e	-ri-
8e	-ge
4.g	Ma2r':
8e	dass
=13	=13
4d	Frank-
8d	-reich
8d	ver-
4e	-lo-
8e	-ren
8e	ge-
=14	=14
4c	-gan-
4c}	-gen,}
4r	.
{4f	{be-
=15	=15
4d	-siegt
8d	und
8d	ge-
4g	-schla-
8g	-gen
8g	das
=16	=16
4e	ta-
8e	-pfe-
8e	-re
4a	Heer,
8a	und
8a	der
=17	=17
4a	Kai-
8a	-ser,
8a	der
4a	Kai-
8a	-ser
8a	ge-
=18	=18
4g#	-fan-
4b}	-gen.}
2r	.
!! rest to measure 20
=20	=20
2r	.
4r	.
{4e	{Da
=21	=21
4a	wein-
8a	-ten
8b	zu-
12cc	-sam-
12cc	-men
12cc	die
8b	Gre-
8b	-na-
=22	=22
4a}	-dier'}
4r	.
4r	.
{4cc	{wohl
=23	=23
4.b	ob
8a	der
4g#	kla2g-
8f#	-li-
8f#	-chen
=24	=24
4e	Kun-
4e	-de.
8r	.
8e	Der
8e	ei-
8e	-ne
=25	=25
4e	sprach:
8r	.
8e	"Wie
4f#	weh'
8r	.
8f#	wird
=26	=26
4g}	mir,}
4r	.
4r	.
{4e	{wie
=27	=27
4e	brennt
8e	mei-
8e	-ne
4.f#	al-
8f#	-te
=28	=28
4g	Wun-
4g	-de!"
8r	.
8d	Der
8d	an-
8d	-dre
=29	=29
4d	sprach:
8r	.
8d	"Das
4e	Lied
8r	.
8e	ist
=30	=30
4f}	aus,}
4r	.
4r	.
{4d	{auch
=31	=31
4.d	ich
8d	mo2cht'
4.e	mit
8e	dir
=32	=32
4f	ster-
4f}	-ben,}
4r	.
{4e	{doch
=33	=33
4.d#	hab'
8d#	ich
4.a	Weib
8a	und
=34	=34
4.g#	Kind
8g#	zu
4e	Haus,
4e	die
=35	=35
4.d#	oh-
8d#	-ne
4.a	mich
8a	ver-
=36	=36
4g#	-der-
4e	ben."
8r	.
8e	Was
8e	schert
8e	mich
=37	=37
4a	Weib,
8r	.
8b	was
4cc	schert
8r	.
8b	mich
=38	=38
4a}	Kind,}
4r	.
4r	.
{4cc	ich
=39	=39
4b	tra-
8a	-ge
8a	weit
4g#	bes-
8f#	-ser
8f#	Ver-
=40	=40
4e	-lan-
4e}	-gen;}
4e	.
{8e	{lass
8e	sie
=41	=41
8a	bet-
8b	-teln
4cc}	gehn,}
4r	.
{8b	wenn
8b	sie
=42	=42
8a	hung-
8a	-rig
8a}	sind}
8r	.
4r	.
{4ee	{mein
=43	=43
4dd	Kai-
8cc	-ser,
8cc	mein
4b	Kai-
8a	-ser
8a	ge-
=44	=44
4e	fan-
4e}	gen!}
4r	.
8r	.
{8e	{Ge-
=45	=45
4.f	wa2hr'
8f	mir,
8f	Bru-
8f	-der,
8g	ei-
8d	-ne
=46	=46
4e}	Bitt':}
4r	.
4r	.
{4e	{Wenn
=47	=47
4d	ich
8r	.
8d	jetzt
4e	ster-
8r	.
qe	|
8B	-ben
=48	=48
4c	wer-
4c}	de,}
4r	.
{4f	{so
=49	=49
4d	nimm
8d	mei-
8d	-ne
4g	Lei-
8g	-che
8g	nach
=50	=50
4e	Frank-
4e	-reich
4a	mit,
8r	.
8a	be-
=51	=51
4a	-grab'
8a	mich
8a	in
4.a	Frank-
8a	-reichs
=52	=52
4g#	Er-
4b}	-de.}
4r	.
{4e	{Das
=53	=53
4.e	Eh-
8e	-ren-
8e	-kreuz
8e	am
8e	ro-
8a	-ten
=54	=54
2g#}	Band}
2r	.
=55	=55
{4e	{sollst
8e	du
8e	aufs
4e	Herz
4a	mir
=56	=56
4g#	le-
4e}	-gen;}
4r	.
8r	.
{8e	{die
=57	=57
4.e	Flin-
8e	-te
8e	gib
8e	mir
8e	in
8a	die
=58	=58
2g#}	Hand,}
4r	.
8r	.
{8e	{und
=59	=59
4.e	gu2rt'
8e	mir
4.e	um
8a	den
=60	=60
4g#	De-
4e}	-gen.}
4r	.
{4e	{So
=61	=61
*k[f#c#g#]	*
4a	will
4a	ich
4b	lie-
8b	-gen
8b	und
=62	=62
4.ee	hor-
8cc#	-chen
4a	still,
4a	wie
=63	=63
4.f#	ei-
8dd	-ne
4cc#	Schild
8b	wach',
8b	im
=64	=64
4a	Gra-
4a}	-be,}
4r	.
{4e	{bis
=65	=65
4a	einst
4a	ich
4b	ho2-
8b	-re
8b	Ka-
=66	=66
4ee	-no-
8ee	-nen-
8cc#	-ge-
4.a	bru2ll
8a	und
=67	=67
4f#	wie-
8dd	-hern-
8dd	-der
4cc#	Ros-
8b	-se
8b	Ge-
=68	=68
4a	-tra-
4a}	-be.}
4r	.
{(8a	{Dann
8b)	|
=69	=69
4cc#	rei-
8cc#	-tet
8cc#	mein
(8dd	Kai-
8cc#)	|
8b	-ser
8a	wohl
=70	=70
4b	u2-
8b	-ber
8b	mein
4b	Grab,
4b	viel
=71	=71
4.dd	Schwer-
8dd	-ter
(8ee	Klir-
8dd)	|
8cc#	-ren
8b	und
=72	=72
4cc#	blit-
4cc#}	-zen,}
4r	.
{4ee	{viel
=73	=73
4ee	Schwer-
(8cc#	-ter
8a)	|
4ee	klir-
8cc#	-ren
8a	und
=74	=74
4ee	blit-
4e}	-zen;}
4r	.
{4e	{dann
=75	=75
4a	steig'
8.a	ich
16a	ge-
4b	-waff-
8.b	-net
16b	her-
=76	=76
4ee	-vor
8ee	aus
8cc#	dem
4a	Grab
8r	.
8a	den
=77	=77
4f#	Kai-
8dd	-ser,
8dd	den
4cc#	Kai-
8b	-ser
8b	zu
=78	=78
4a	schu2t-
4a}	-zen!"}
2r	.
==	==
*-	*-
